icons/svg/bluetooth-audio.svg

﻿<?xml version="1.0" encoding="utf-8"?>
<!DOCTYPE svg PUBLIC "-//W3C//DTD SVG 1.1//EN" "http://www.w3.org/Graphics/SVG/1.1/DTD/svg11.dtd">
<svg xmlns="http://www.w3.org/2000/svg" xmlns:xlink="http://www.w3.org/1999/xlink" version="1.1" baseProfile="full" width="24" height="24" viewBox="0 0 24.00 24.00" enable-background="new 0 0 24.00 24.00" xml:space="preserve">
	<path fill="#000000" fill-opacity="1" stroke-width="0.2" stroke-linejoin="round" d="M 12.8783,16.2911L 10.9993,18.1701L 10.9993,14.4121M 10.9993,5.82607L 12.8783,7.70507L 10.9993,9.58407M 15.7063,7.70507L 9.99931,1.99807L 8.99931,1.99807L 8.99931,9.58407L 4.41331,4.99807L 2.99931,6.41207L 8.58531,11.9981L 2.99931,17.5841L 4.41331,18.9981L 8.99931,14.4121L 8.99931,21.9981L 9.99931,21.9981L 15.7063,16.2911L 11.4133,11.9981M 19.5283,6.71107L 18.2643,7.97507C 18.8903,9.18107 19.2493,10.5461 19.2493,11.9981C 19.2493,13.4501 18.8903,14.8151 18.2643,16.0211L 19.4633,17.2197C 20.4313,15.6801 20.9993,13.8651 20.9993,11.9121C 20.9993,10.0041 20.4553,8.22807 19.5283,6.71107 Z M 14.2413,12.0091L 16.5613,14.3281C 16.8403,13.6041 16.9993,12.8201 16.9993,11.9981C 16.9993,11.1821 16.8423,10.4041 16.5673,9.68406L 14.2413,12.0091 Z "/>
</svg>

<svg xmlns="http://www.w3.org/2000/svg" version="1.1" baseProfile="full" width="24" height="24" viewBox="0 0 24.00 24.00" xml:space="preserve"><path fill="#000" fill-opacity="1" stroke-width=".2" stroke-linejoin="round" d="M12.878 16.29l-1.88 1.88v-3.758m0-8.586l1.88 1.88-1.88 1.878m4.708-1.88L10 2H9v7.586L4.412 4.998 3 6.412l5.585 5.586L3 17.584l1.413 1.414L9 14.412v7.586h1l5.706-5.707L11.413 12m8.115-5.287l-1.264 1.265c.626 1.206.985 2.57.985 4.023 0 1.452-.36 2.817-.986 4.023l1.2 1.2c.967-1.54 1.535-3.355 1.535-5.308 0-1.908-.545-3.684-1.472-5.2zm-5.287 5.3l2.32 2.318c.28-.724.44-1.508.44-2.33 0-.816-.158-1.594-.433-2.314L14.24 12.01z"/></svg>
